X:33
T:Memories of Michael Anthony
R:reel
C:Paul S. Cranford
O:Cape Breton Island
S:http://www.cranfordpub.com
D:currently unrecorded
B:currently unpublished in book form
Z:psc
H:                                                        copyrights Cranford Publications, SOCAN
L:1/8
Q:333
M:c|
K:C
c2 Gc AcGc|EGce dcde|c2 Gc Acfa|gece d2 cA|
c2 Gc AcGc|EGce dcde|fefa geca|gece d2 c||
||e|g2 eg aega|gece dcde|g2 c'a gefa|gece d2 ce|
g2 c'a gefa|gece dcAd|cG G/G/G cAAa|gece d2 cA|]
